mimes/16/image-x-xcf.svg

<?xml version="1.0" encoding="UTF-8" standalone="no"?>
<svg
   xmlns:dc="http://purl.org/dc/elements/1.1/"
   xmlns:cc="http://creativecommons.org/ns#"
   xmlns:rdf="http://www.w3.org/1999/02/22-rdf-syntax-ns#"
   xmlns:svg="http://www.w3.org/2000/svg"
   xmlns="http://www.w3.org/2000/svg"
   xmlns:xlink="http://www.w3.org/1999/xlink"
   version="1.1"
   width="16"
   height="16"
   id="svg3900">
  <defs
     id="defs3902">
    <linearGradient
       id="linearGradient3977">
      <stop
         id="stop3979"
         style="stop-color:#ffffff;stop-opacity:1"
         offset="0" />
      <stop
         id="stop3981"
         style="stop-color:#ffffff;stop-opacity:0.23529412"
         offset="0.02929282" />
      <stop
         id="stop3983"
         style="stop-color:#ffffff;stop-opacity:0.15686275"
         offset="0.97230476" />
      <stop
         id="stop3985"
         style="stop-color:#ffffff;stop-opacity:0.39215687"
         offset="1" />
    </linearGradient>
    <linearGradient
       id="linearGradient2867-449-88-871-390-598-476-591-434-148-57-177-8-3">
      <stop
         id="stop3750-1-0"
         style="stop-color:#90dbec;stop-opacity:1"
         offset="0" />
      <stop
         id="stop3752-3-7"
         style="stop-color:#55c1ec;stop-opacity:1"
         offset="0.26238" />
      <stop
         id="stop3754-1-8"
         style="stop-color:#3689e6;stop-opacity:1"
         offset="0.704952" />
      <stop
         id="stop3756-1-6"
         style="stop-color:#2b63a0;stop-opacity:1"
         offset="1" />
    </linearGradient>
    <linearGradient
       id="linearGradient3600">
      <stop
         id="stop3602"
         style="stop-color:#f4f4f4;stop-opacity:1"
         offset="0" />
      <stop
         id="stop3604"
         style="stop-color:#dbdbdb;stop-opacity:1"
         offset="1" />
    </linearGradient>
    <linearGradient
       x1="23.99999"
       y1="6.2052388"
       x2="23.99999"
       y2="41.589603"
       id="linearGradient3011"
       xlink:href="#linearGradient3977"
       gradientUnits="userSpaceOnUse"
       gradientTransform="matrix(0.24324324,0,0,0.35135133,2.1621636,-0.43242804)" />
    <radialGradient
       cx="7.8060555"
       cy="9.9571075"
       r="12.671875"
       fx="7.2758255"
       fy="9.9571075"
       id="radialGradient3014"
       xlink:href="#linearGradient2867-449-88-871-390-598-476-591-434-148-57-177-8-3"
       gradientUnits="userSpaceOnUse"
       gradientTransform="matrix(-5.0811427e-8,2.2503492,-2.5432605,-6.7549429e-8,33.320146,-20.146257)" />
    <linearGradient
       x1="25.132275"
       y1="0.98520643"
       x2="25.132275"
       y2="47.013336"
       id="linearGradient3017"
       xlink:href="#linearGradient3600"
       gradientUnits="userSpaceOnUse"
       gradientTransform="matrix(0.28571361,0,0,0.30419701,1.1428727,0.2326048)" />
  </defs>
  <metadata
     id="metadata3905">
    <rdf:RDF>
      <cc:Work
         rdf:about="">
        <dc:format>image/svg+xml</dc:format>
        <dc:type
           rdf:resource="http://purl.org/dc/dcmitype/StillImage" />
        <dc:title />
      </cc:Work>
    </rdf:RDF>
  </metadata>
  <path
     d="m 3,1 c 2.2915074,0 9.999988,8.904e-4 9.999988,8.904e-4 L 13,15 C 13,15 6.3333332,15 3,15 3,10.333334 3,5.6666664 3,1 z"
     id="path4160"
     style="fill:url(#linearGradient3017);fill-opacity:1;stroke:none;display:inline" />
  <path
     d="m 2.5,0.5000263 c 2.520658,0 10.999986,9.286e-4 10.999986,9.286e-4 L 13.5,15.5 c 0,0 -7.333333,0 -11,0 0,-5 0,-10.0000008 0,-15 z"
     id="path4160-7"
     style="color:#000000;fill:url(#radialGradient3014);fill-opacity:1;fill-rule:nonzero;stroke:none;stroke-width:1;marker:none;visibility:visible;display:inline;overflow:visible;enable-background:accumulate" />
  <path
     d="m 12.5,14.5 -9.0000001,0 0,-13 L 12.5,1.5 z"
     id="rect6741-1"
     style="opacity:0.5;fill:none;stroke:url(#linearGradient3011);stroke-width:1;stroke-linecap:round;stroke-linejoin:miter;stroke-miterlimit:4;stroke-opacity:1;stroke-dasharray:none;stroke-dashoffset:0" />
  <path
     d="m 2.4999621,0.49997396 c 2.5206756,0 11.0000629,9.54e-4 11.0000629,9.54e-4 l 1.3e-5,14.99909804 c 0,0 -7.3333841,0 -11.000076,0 0,-5.000017 0,-10.000035 0,-15.00005204 z"
     id="path4160-8"
     style="opacity:0.3;fill:none;stroke:#000000;stroke-width:0.99992192;stroke-linecap:butt;stroke-linejoin:round;stroke-miterlimit:4;stroke-opacity:1;stroke-dasharray:none;stroke-dashoffset:0;display:inline" />
  <path
     d="m 11.797609,5.3324394 c -0.03673,0.017998 -0.06933,0.076385 -0.101056,0.1712859 C 11.611943,5.7567937 11.01661,7.5050268 7.6441918,7.5893829 6.0349255,7.6292829 5.0220871,6.2190959 5.0220871,6.2190959 4.9905827,7.0934898 5.0159061,7.9985818 5.0012744,8.9800072 4.9825344,8.9508082 4.8580491,8.7966724 4.8374651,8.7682334 4.7133754,8.596779 4.5679076,8.4525089 4.4130287,8.3450559 4.2350725,8.221592 4.0499685,8.1400755 3.8673243,8.1133162 3.6567545,8.0824652 3.4530856,8.1279302 3.2913029,8.2442995 3.129471,8.3607033 3.035261,8.5390396 2.9982394,8.7480815 c -0.032094,0.1812208 -0.020959,0.3771243 0.040423,0.584387 0.053428,0.180405 0.1387116,0.3625493 0.2627466,0.5340092 0.1310343,0.1811353 0.2942803,0.3415343 0.4648593,0.4534033 0.1923777,0.126165 0.3963299,0.200073 0.5962326,0.211589 0.06186,0.0036 0.1250625,-0.01156 0.1819015,-0.02015 1.2947602,1.023391 3.9997465,2.045644 5.7032256,1.034363 0.03685,0.0125 0.07412,0.02754 0.111162,0.0403 9.12e-4,0.01748 -0.0046,0.03481 0,0.05038 l 0.08085,-0.03023 c 0.252475,0.133145 0.568146,0.222984 0.848874,0.32242 -0.03151,0.265891 0.100394,0.489028 0.434543,0.616502 C 12.324823,12.774623 13.000185,13 13.000185,13 c -0.287049,-0.971494 -0.281973,-1.814745 -1.026241,-1.869119 -0.126391,-0.0092 -0.283694,0.116932 -0.32338,0.151135 l -0.677078,-0.433253 -0.03032,0 -0.01011,-0.01008 c 0.911775,-0.894655 1.329251,-2.3896681 1.00603,-5.3148122 -0.01871,-0.146179 -0.08026,-0.2214346 -0.141477,-0.1914334 z"
     id="path4323-6"
     style="opacity:0.3;color:#000000;fill:#10283f;fill-opacity:0.63137255;fill-rule:nonzero;stroke:none;stroke-width:0.99999994;marker:none;visibility:visible;display:inline;overflow:visible;enable-background:accumulate" />
  <path
     d="m 11.797609,4.4819804 c -0.03673,0.017998 -0.06933,0.076385 -0.101056,0.1712859 C 11.611943,4.9063347 11.01661,6.6545678 7.6441918,6.7389239 6.0349255,6.7788239 5.0220871,5.3686369 5.0220871,5.3686369 4.9905827,6.2430308 5.0159061,7.1481228 5.0012744,8.1295482 4.9825344,8.1003492 4.8580491,7.9462134 4.8374651,7.9177744 4.7133754,7.74632 4.5679076,7.6020499 4.4130287,7.4945969 4.2350725,7.371133 4.0499685,7.2896165 3.8673243,7.2628572 3.6567545,7.2320066 3.4530856,7.277471 3.2913029,7.3938405 3.129471,7.5102443 3.035261,7.6885806 2.9982394,7.8976225 c -0.032094,0.1812208 -0.020959,0.3771243 0.040423,0.584387 0.053428,0.180405 0.1387116,0.3625493 0.2627466,0.5340092 0.1310343,0.181135 0.2942803,0.3415348 0.4648593,0.4534037 0.1923777,0.1261649 0.3963299,0.2000727 0.5962326,0.2115885 0.06186,0.00356 0.1250625,-0.011563 0.1819015,-0.020152 1.2947602,1.0233911 3.9997465,2.0456441 5.7032256,1.0343631 0.03685,0.0125 0.07412,0.02754 0.111162,0.0403 9.12e-4,0.01748 -0.0046,0.03481 0,0.05038 l 0.08085,-0.03023 c 0.252475,0.133145 0.568146,0.222984 0.848874,0.32242 -0.03151,0.265891 0.100394,0.489028 0.434543,0.616502 0.601766,0.229568 1.277128,0.454945 1.277128,0.454945 -0.287049,-0.971494 -0.281973,-1.814745 -1.026241,-1.869119 -0.126391,-0.0092 -0.283694,0.116932 -0.32338,0.151135 l -0.677078,-0.4332528 -0.03032,0 -0.01011,-0.010076 c 0.911775,-0.8946552 1.329251,-2.3896683 1.00603,-5.3148124 -0.01871,-0.146179 -0.08026,-0.2214346 -0.141477,-0.1914334 z"
     id="path4323"
     style="color:#000000;fill:#ffffff;fill-opacity:1;fill-rule:nonzero;stroke:none;stroke-width:0.99999994;marker:none;visibility:visible;display:inline;overflow:visible;enable-background:accumulate" />
</svg>

<svg xmlns="http://www.w3.org/2000/svg" xmlns:xlink="http://www.w3.org/1999/xlink" viewBox="0 0 16 16"><defs><linearGradient id="a"><stop offset="0" stop-color="#fff"/><stop offset=".029" stop-color="#fff" stop-opacity=".235"/><stop offset=".972" stop-color="#fff" stop-opacity=".157"/><stop offset="1" stop-color="#fff" stop-opacity=".392"/></linearGradient><linearGradient id="b"><stop offset="0" stop-color="#90dbec"/><stop offset=".262" stop-color="#55c1ec"/><stop offset=".705" stop-color="#3689e6"/><stop offset="1" stop-color="#2b63a0"/></linearGradient><linearGradient id="c"><stop offset="0" stop-color="#f4f4f4"/><stop offset="1" stop-color="#dbdbdb"/></linearGradient><linearGradient x1="24" y1="6.205" x2="24" y2="41.59" id="f" xlink:href="#a" gradientUnits="userSpaceOnUse" gradientTransform="matrix(.24324 0 0 .35135 2.162 -.432)"/><radialGradient cx="7.806" cy="9.957" r="12.672" fx="7.276" fy="9.957" id="e" xlink:href="#b" gradientUnits="userSpaceOnUse" gradientTransform="matrix(0 2.25035 -2.54326 0 33.32 -20.146)"/><linearGradient x1="25.132" y1=".985" x2="25.132" y2="47.013" id="d" xlink:href="#c" gradientUnits="userSpaceOnUse" gradientTransform="matrix(.2857 0 0 .3042 1.143 .233)"/></defs><path d="M3 1h10v14H3V1z" fill="url(#d)"/><path d="M2.5.5h11v15h-11V.5z" color="#000" fill="url(#e)" overflow="visible"/><path d="M12.5 14.5h-9v-13h9z" opacity=".5" fill="none" stroke="url(#f)" stroke-linecap="round"/><path d="M2.5.5h11v15h-11V.5z" opacity=".3" fill="none" stroke="#000" stroke-linejoin="round"/><path d="M11.798 5.332c-.037.018-.07.077-.1.172-.086.253-.68 2-4.054 2.085-1.61.04-2.622-1.37-2.622-1.37-.03.87-.006 1.78-.02 2.76-.02-.03-.144-.19-.165-.22a1.797 1.797 0 0 0-.424-.424 1.305 1.305 0 0 0-.546-.23.782.782 0 0 0-.576.13.762.762 0 0 0-.29.51c-.03.18-.02.374.04.58a1.834 1.834 0 0 0 .73.988c.2.126.4.2.6.21.06.006.13-.01.18-.02 1.3 1.026 4 2.048 5.71 1.037a.85.85 0 0 1 .11.04c.002.015-.004.033 0 .05l.082-.03c.25.13.568.22.85.32-.033.265.1.49.433.616.6.228 1.274.453 1.274.453-.288-.97-.283-1.816-1.027-1.87-.125-.01-.283.117-.322.15l-.675-.43h-.03l-.01-.01c.91-.898 1.33-2.39 1.007-5.318-.02-.146-.08-.22-.143-.19z" opacity=".3" color="#000" fill="#10283f" fill-opacity=".631" overflow="visible"/><path d="M11.798 4.482c-.037.018-.07.076-.1.17-.086.254-.68 2.003-4.054 2.087-1.61.04-2.622-1.37-2.622-1.37-.03.87-.006 1.77-.02 2.76-.02-.03-.144-.19-.165-.22a1.797 1.797 0 0 0-.424-.424 1.305 1.305 0 0 0-.546-.23.782.782 0 0 0-.576.13.762.762 0 0 0-.29.51c-.03.18-.02.375.04.582a1.834 1.834 0 0 0 .73.986c.2.13.4.2.6.214.06.006.128-.01.18-.02 1.3 1.025 4 2.048 5.708 1.036l.11.04c.004.016-.002.033 0 .05l.084-.03c.25.132.568.222.85.32-.033.268.1.49.433.62.6.23 1.277.454 1.277.454-.29-.972-.284-1.815-1.028-1.87-.125-.01-.283.117-.322.152L10.98 10h-.03l-.01-.01c.913-.894 1.33-2.39 1.007-5.315-.02-.146-.08-.22-.142-.19z" color="#000" fill="#fff" overflow="visible"/></svg>
